packages/web-icons/svgs/thumb_down.svg

<svg viewBox="0 0 44 49" xmlns="http://www.w3.org/2000/svg" class="ridi_icon"><path d="M41.7 16.3s2.3 1.3 2.1 4.3c-.1 1.9-2.4 3.7-2.4 3.7s1 1.8 1 2.6 0 2.9-2.1 4-12.1-.4-12.1-.4 1 5.8 1.1 6.6c.1.8 1 1.7 1.1 4.4.1 3.5-1.3 7.6-4.3 7.5-3.1-.1-2.2-5-2.2-5.8 0-.8-2.2-5.8-4.2-9-1.9-3.2-4.2-4.6-4.9-7.8-.6-2.7-3.6-3.8-3.6-3.8-.9-.2-.9-1-.8-1.7 1.9-11.7 3.8-18 3.8-18s5-1.1 6.8-1.2c1.8-.1 1.5-.2 3.3-.6 1.8-.3 5.5 0 8.5 0s4.2.7 7.1 2.8c2.9 2.1.8 5 .8 5s2.4.6 2.4 3.8c.1 2.8-1.4 3.6-1.4 3.6zm-34 4.6c-.2.9-1.1 1.6-2 1.6H2c-.9 0-1.7-.7-1.8-1.6v-18c0-.9.8-1.6 1.7-1.6h8.2c.9 0 1.3 1.2 1.1 2.2L7.7 20.9z"/></svg>

<?xml version="1.0" encoding="UTF-8"?>
<svg width="44px" height="49px" viewBox="0 0 44 49" version="1.1" xmlns="http://www.w3.org/2000/svg">
  <!-- Generator: Sketch 41.2 (35397) - http://www.bohemiancoding.com/sketch -->
  <title>thumb_down</title>
  <desc>Created with Sketch.</desc>
  <defs></defs>
  <g id="Page-1" stroke="none" stroke-width="1" fill="none" fill-rule="evenodd">
    <g id="thumb_down" fill="#000000">
      <g id="레이어_1">
        <path d="M41.7,16.3 C41.7,16.3 44,17.6 43.8,20.6 C43.7,22.5 41.4,24.3 41.4,24.3 C41.4,24.3 42.4,26.1 42.4,26.9 C42.4,27.7 42.4,29.8 40.3,30.9 C38.2,32 28.2,30.5 28.2,30.5 C28.2,30.5 29.2,36.3 29.3,37.1 C29.4,37.9 30.3,38.8 30.4,41.5 C30.5,45 29.1,49.1 26.1,49 C23,48.9 23.9,44 23.9,43.2 C23.9,42.4 21.7,37.4 19.7,34.2 C17.8,31 15.5,29.6 14.8,26.4 C14.2,23.7 11.2,22.6 11.2,22.6 C10.3,22.4 10.3,21.6 10.4,20.9 C12.3,9.2 14.2,2.9 14.2,2.9 C14.2,2.9 19.2,1.8 21,1.7 C22.8,1.6 22.5,1.5 24.3,1.1 C26.1,0.8 29.8,1.1 32.8,1.1 C35.8,1.1 37,1.8 39.9,3.9 C42.8,6 40.7,8.9 40.7,8.9 C40.7,8.9 43.1,9.5 43.1,12.7 C43.2,15.5 41.7,16.3 41.7,16.3 L41.7,16.3 Z" id="Shape"></path>
        <path d="M7.7,20.9 C7.5,21.8 6.6,22.5 5.7,22.5 L2,22.5 C1.1,22.5 0.3,21.8 0.2,20.9 L0.2,2.9 C0.2,2 1,1.3 1.9,1.3 L10.1,1.3 C11,1.3 11.4,2.5 11.2,3.5 L7.7,20.9 L7.7,20.9 Z" id="Shape"></path>
      </g>
    </g>
  </g>
</svg>
